packages/gestalt-icons-android/vr-theme/ic_vr_pin_gestalt.svg

<svg width="24" height="24" viewBox="0 0 24 24" fill="none" xmlns="http://www.w3.org/2000/svg">
<path fill-rule="evenodd" clip-rule="evenodd" d="M5 3L6.9997 3C7.55199 3 7.9997 3.44772 7.9997 4L8 7.68861L7.07517 7.88331C4.84452 8.35292 3.21389 10.2718 3.11038 12.549L3.00103 14.9546C2.98863 15.2274 3.08835 15.4934 3.27702 15.6909C3.46569 15.8883 3.72691 16 4 16H11V18.2917C11 20.0904 11.2206 21.8824 11.6569 23.6275L11.75 24H12.25L12.3431 23.6275C12.7794 21.8824 13 20.0904 13 18.2917V16H20C20.281 16 20.549 15.8818 20.7384 15.6743C20.9279 15.4669 21.0213 15.1893 20.9959 14.9095L20.7603 12.3184C20.5634 10.1523 18.9888 8.362 16.8655 7.89017L16 7.69783L15.9997 4C15.9997 3.44771 16.4474 3 16.9997 3H19V1H5V3ZM9.9997 4C9.9997 3.64936 9.93955 3.31278 9.829 3H14.1704C14.0599 3.31278 13.9997 3.64936 13.9997 4L14 9.30217L16.4317 9.84254C17.7056 10.1256 18.6504 11.1998 18.7686 12.4995L18.905 14H5.04649L5.10831 12.6398C5.17042 11.2735 6.1488 10.1222 7.48719 9.84041L10 9.31139L9.9997 4Z" fill="black"/>
</svg>

<svg xmlns="http://www.w3.org/2000/svg" width="24" height="24"><path d="M5 3h2a1 1 0 0 1 1 1v3.69l-.92.2a5 5 0 0 0-3.97 4.66l-.1 2.4A1 1 0 0 0 4 16h7v2.3q0 2.7.66 5.33l.09.37h.5l.1-.37a22 22 0 0 0 .65-5.34V16h7a1 1 0 0 0 1-1.1l-.24-2.58a5 5 0 0 0-3.9-4.43l-.86-.2V4a1 1 0 0 1 1-1h2V1H5zm5 1a3 3 0 0 0-.17-1h4.34A3 3 0 0 0 14 4v5.3l2.43.54a3 3 0 0 1 2.34 2.66l.13 1.5H5.05l.06-1.36a3 3 0 0 1 2.38-2.8L10 9.31z"/></svg>
